!!!!SEGMENT: pl-wnifc--6735-n--001_klemczynski-julian--fantaisie-brillante-sur-la-romance-du-saule-introduzione.krn
!!!cenid: 18xx:3976
!!!COM: Klemczyński, Julian
!!!COM-rismID: pe30016420
!!!CDT: 1807-~1851
!!!CNT:
!!!OPR: Fantaisie brillante sur la Romance du Saule
!!!OTL: Introduzione
!!!OMV: 001
!!!PDT:
!!!AGN:
!!!SMS-siglum: PL-Wnifc
!!!SMS-shelfmark: 6735/n
!!!SMS-shelfwork: 001-001 M
!!!SMS-variant:
!!!SMS-altvar:
!!!NIFC-rismSourceID: 1001157997
!!!NIFC-rismChildID: 1001158000
!!!NIFC-islandoraID: nifc:213460
!!!URL-pdf-islandora: https://repozytorium.nifc.pl/islandora/object/nifc%3A213460/datastream/PDF/view
!!!URL-scan: https://polish.musicsources.pl/pl/lokalizacje/galeria/klocki-introligatorskie/688 @EN{Scan on Polish Music Sources Website} @PL{Skany w portalu Dziedzictwo Muzyki Polskiej w otwartym dostępie}
!!!ONB-nifc: UWAGA: skany 10-13. Części utworu: 1. Introduzione, 2. Romanza. 3. Finale
!!!AIN: 2 piano
!!!key: g
**kern	**kern	**dynam
*part2	*part1	*part1
*staff2	*staff1	*
*I"Piano	*I"PIANO	*
*	*I'pf	*
*Ipiano	*Ipiano	*
*ICklav	*ICklav	*
*clefF4	*clefG2	*
*k[b-e-]	*k[b-e-]	*
*g:	*g:	*
*M4/4	*M4/4	*
*met(c)	*met(c)	*
=1	=1	=1
!	!LO:TX:b:i:t=dolce.	!
!	!LO:TX:a:t=INTRODUZIONE.	!
!	!LO:TX:a:t=La Romance du Saule.	!
!	!LO:TX:a:B:t=Moderato	!
!	!LO:TX:a:B:t=Moderato.	!
1r	(>[2g/	p
.	8g/L]	.
.	8a/	.
.	8b-/	.
.	8cc/J	.
=2	=2	=2
*	*^	*
(1B-	4..dd/	1d	<
.	16g/	.	.
.	2g/	.	.
=3	=3	=3	=3
!	!	!	!LO:HP:t=cres.
1c	4..ee-/	1e-	[ <
.	16g/	.	.
.	2g/	.	.
=4	=4	=4	=4
1B-)	4..dd/	1d	>
.	16g/	.	.
.	2g/)	.	.
=5	=5	=5	=5
*^	*	*	*
2A/	8.A\L	(2cc#X/	2en\ 2g	] mf
.	16AA/Jk	.	.	.
.	4AA/	.	.	.
2D/	8.D\L	2a/ 2ccn	2d\ 2f#X	.
.	16DD/Jk	.	.	.
.	4DD/	.	.	.
!LO:LB:g=original	!LO:LB:g=original	!LO:LB:g=original	!LO:LB:g=original	!
=6	=6	=6	=6	=6
!	!	!	!	!LO:HP:t=cres.
2G/	8.G\L	2g/ 2bn	2d\	<
.	16GG/Jk	.	.	<
.	4GG/	.	.	.
2GG/	8.GG/L	2g/ 2b-X	2d\	.
.	16GGG/Jk	.	.	.
.	4GGG/	.	.	]]
=7	=7	=7	=7	=7
!	!	!	!	!
2A/	8.A\L	2a/	2c#X\ 2en 2g	rf
.	16AA/Jk	.	.	.
.	4AA/	.	.	.
!	!	!LO:TX:b:i:t=espres&colon;	!	!
2D/	8.D\L	4.b-/	2cn\ 2d 2f#X	>
.	16DD/Jk	.	.	.
.	4DD/	.	.	.
.	.	8a/)	.	.
*v	*v	*	*	*
=8	=8	=8	=8
!	!LO:TX:b:i:t=marcato il basso.	!	!
[2GGG^^</ [2GG	(<8G'/L 8g	1B- 1d	] f
.	8G'/ 8g	.	.
.	8G'/ 8g	.	.
.	8G'/J 8g	.	.
8.GGG/L] 8.GG]	8G'/L 8g	.	.
.	8G'/ 8g	.	.
(16AAA/K 16AA	.	.	.
8.BBB-/) 8.BB-	8G'/ 8g	.	.
.	8G'/J) 8g	.	.
(16CC/Jk 16C	.	.	.
*	*v	*v	*
=9	=9	=9
8DD/L) 8D	4G/ 4B- 4d 4g	.
(8GG'^>/ 8G	.	.
8GG'/ 8G	8.r	.
8GG'/J 8G	.	.
.	16g\ 16b- 16dd 16gg	rf
8GG'/L 8G	2g^<\ 2b- 2dd 2gg	.
8GG'/ 8G	.	.
8GG'/ 8G	.	.
8GG'/J) 8G	.	.
=10	=10	=10
*	*^	*
[2GGG^^</ [2GG	8G'/L 8g	1c 1e-	.
.	8G'/ 8g	.	.
.	8G'/ 8g	.	.
.	8G'/J 8g	.	.
8.GGG/L] 8.GG]	8G'/L 8g	.	.
.	8G'/ 8g	.	.
(16BBBn/K 16BBn	.	.	.
8.CC/) 8.C	8G'/ 8g	.	.
.	8G'/J 8g	.	.
(16DD/Jk 16D	.	.	.
*	*v	*v	*
=11	=11	=11
8EE-/L) 8E-	4G/ 4c 4e- 4g	.
(8GG'^>/ 8G	.	.
8GG'/ 8G	8.r	.
8GG'/J 8G	.	.
.	16g\ 16cc 16ee- 16gg	rf
*tremolo	*	*
8GG'/L 8G	2g^<\ 2cc 2ee- 2gg	.
8GG'/ 8G	.	.
8GG'/ 8G	.	.
8GG'/J) 8G	.	.
!LO:LB:g=original	!LO:LB:g=original	!
*Xtremolo	*	*
=12	=12	=12
(8GG'/L 8G	[2A^/ [2c [<2e- [2f#X	rf
8GG'/ 8G	.	.
8GG'/ 8G	.	.
8GG'/J 8G	.	.
8GG'/L 8G	8A/L] 8c] 8e-] 8f#]	.
8GG'/ 8G	(32A/LL	<
.	32c/	.
.	32e-/	.
.	32f#/JJJ)	.
8GG'/ 8G	(32a\LLL	.
.	32cc\	.
.	32ee-\	.
.	32ff\JJJ	.
8GG'/J) 8G	32aa\LLL	.
.	32ccc\	.
.	32eee-\	.
.	32fff\JJJ)	[[
=13	=13	=13
*	*^	*
8GG'/ 8G	8aaa\	4ryy	.
(8G'\L 8c 8e-	8ryy	.	.
8G'\ 8c 8e-	[4a^^/ [4ee-	[4f#X\	.
8G'\J 8c 8e-	.	.	.
!	!	!	!LO:HP:t=dimin.
8G'\L 8c 8e-	8f#/L 8a] 8ee-]	8f#\L]	>
8G'\ 8c 8e-	8f#/ 8a 8ee-	8f#\	.
8G'\ 8c 8e-	8f#/ 8a 8dd	8f#\	.
8G'\J) 8c 8e-	8f#/J 8a 8cc	8f#\J	.
*	*v	*v	*
=14	=14	=14
8G'\ 8B- 8d	8g`/ 8b-	.
*clefG2	*	*
!	!LO:TX:b:i:t=dolc.	!
(8gg'\L	(8bb-'\L 8ddd	pp
8gg'\	8bb-'\ 8ddd	.
8gg'\J	8bb-'\J 8ddd	.
8gg'\L	8bb-'\L 8ddd	<
8ff'\	8aa'\ 8ddd	.
8ee-'\	8gg'\ 8ddd	.
8a'\J	(8gg'\J) [8aa 8ccc#X	[[
=15	=15	=15
8dd'\)	8ff#X'\) 8aa] 8ddd	>
(8cc'\L	8ee-'\L 8gg	]
8cc'\	8ee-'\ 8gg	.
8cc'\J	8ee-'\J 8gg	.
8cc'\L	8ee-'\L 8gg	.
8b-'\	8dd'\ 8gg	.
8a'\	8cc'\ 8gg	.
8d'\J	((8cc'\J 8dd 8ff#	.
=16	=16	=16
*	*^	*
8g'/)	8b-\)) 8gg	8ryy	.
!	!LO:TX:b:t=poco cres.	!	!
8g'/L	8dd'/L	8b-'\L	.
8g'/	8dd'/	8b-'\	<
8g'/J	8ee-'/J	8b-'\J	.
(8g^/L	8ee-'/L	(>8b-^<\L	.
8f#X/)	8ee-'/	8a\J)	.
8fn/	(<8ee-/	8a-X'\L	.
8B-X/J	8dd/J)	8a-'\J	.
!LO:LB:g=original	!LO:LB:g=original	!LO:LB:g=original	!
*clefF4	*	*	*
=17	=17	=17	=17
(8Bn\L	8a-X/L 8dd	(>8a-\L	[
8f\)	8g/ 8dd	8g\J)	.
(8f^\	(<8dd/	8g\L	.
8e-\J)	8cc/J)	8g\J	.
!	!	!	!LO:HP:t=dimin.
(8e-\L	(<8cc/L	8g\L	>
8d\	8b-/)	8g\	.
8c#X\	8an/	8g\	.
8D\J) 8cn	8a/J	8f#X\J	.
=18	=18	=18	=18
!LO:TX:t=P:problem:LO:N:vis=1	!LO:TX:b:i:t=con fuoco.	!	!
[2GGG^^</ [2GG	(<8G'/L 8g	1B- 1d	ff
.	8G'/ 8g	.	.
.	8G'/ 8g	.	.
.	8G'/J 8g	.	.
16GGG/LL] 16GG]	8G'/L 8g	.	.
16GG'/ 16G	.	.	.
16FF'/ 16F	8G'/ 8g	.	.
16EE-'/JJ 16E-	.	.	.
16DD'/LL 16D	8G'/ 8g	.	.
16CC'/ 16C	.	.	.
16BBB-'/ 16BB-	8G'/J) 8g	.	.
16AAA'/JJ 16AA	.	.	.
*	*v	*v	*
=19	=19	=19
8GGG'/L 8GG	4G/ 4B- 4d 4g	.
(8GG'/ 8G	.	.
8GG'/ 8G	8.r	.
8GG'/J 8G	.	.
.	16g\ 16b- 16dd 16gg	rf
8GG'/L 8G	2g^<\ 2b- 2dd 2gg	.
8GG'/ 8G	.	.
8GG'/ 8G	.	.
8GG'/J) 8G	.	.
=20	=20	=20
*	*^	*
[2GGG/ [2GG	(<8G'/L 8g	1c 1e-	.
.	8G'/ 8g	.	.
.	8G'/ 8g	.	.
.	8G'/J 8g	.	.
16GGG/LL] 16GG]	8G'/L 8g	.	.
16BBBn'/ 16BBn	.	.	.
16CC'/ 16C	8G'/ 8g	.	.
16EE-'/JJ 16E-	.	.	.
16FF#X'/LL 16F#X	8G'/ 8g	.	.
16GG'/ 16G	.	.	.
16EE-'/ 16E-	8G'/J) 8g	.	.
16CC'/JJ 16C	.	.	.
*	*v	*v	*
=21	=21	=21
8GGG'/L 8GG	4G/ 4c 4e- 4g	.
8GG'/ 8G	.	.
8GG'/ 8G	8.r	.
8GG'/J 8G	.	.
.	16g\ 16cc 16ee- 16gg	rf
*tremolo	*	*
8GG'/L 8G	2g^<\ 2cc 2ee- 2gg	.
8GG'/ 8G	.	.
8GG'/ 8G	.	.
8GG'/J 8G	.	.
!LO:LB:g=original	!LO:LB:g=original	!
*Xtremolo	*	*
=22	=22	=22
*	*^	*
[2GGG/ [2GG	(<8G'/L 8g	1c 1e- 1f#X	.
.	8G'/ 8g	.	.
.	8G'/ 8g	.	.
!	!LO:TX:b:i:t=poco rit&colon;	!	!
.	8G'/J 8g	.	.
16GGG/LL] 16GG]	8G'/L 8g	.	.
16AAA'/ 16AA	.	.	.
16CC'/ 16C	8G'/ 8g	.	.
16DD'/JJ 16D	.	.	.
16EE-'/LL 16E-	8G'/ 8g	.	.
16DD'/ 16D	.	.	.
16CC'/ 16C	8G'/J) 8g	.	.
16AAA'/JJ 16AA	.	.	.
*	*v	*v	*
=23	=23	=23
8GGG'/L 8GG	4c/ 4e- 4f#X	.
(8GG'/ 8G	.	.
8GG'/ 8G	8.r	.
8GG'/J 8G	.	.
.	16a\ 16cc 16ee- 16ff	rf
8GG'/L 8G	2a^<\ 2cc 2ee- 2ff	.
8GG'/ 8G	.	.
8GG'/ 8G	.	.
8GG'/J) 8G	.	.
=24	=24	=24
8GG/ 8G	8g\ 8b- 8dd 8gg	.
*clefG2	*	*
*	*8va	*
!	!LO:TX:b:i:t=dolcissimo	!
(32gg\LLL	32dddd\LLL	pp
32bb-\	32ddd\	.
32gg\	32dddd\	.
32bb-\JJJ	32ddd\JJJ	.
32gg\LLL	32dddd\LLL	<
32bb-\	32ddd\	.
32gg\	32dddd\	.
32bb-\JJJ	32ddd\JJJ	.
32gg\LLL	32dddd\LLL	.
32bb-\	32ddd\	.
32gg\	32dddd\	.
32bb-\JJJ	32ddd\JJJ	.
32gg\LLL	32dddd\LLL	.
32bb-\	32ddd\	[ >
32gg\	32dddd\	.
32bb-\JJJ	32ddd\JJJ	.
32ff\LLL	32dddd\LLL	.
32aa\	32ddd\	.
32ff\	32dddd\	.
32aa\JJJ	32ddd\JJJ	.
32ee-\LLL	32dddd\LLL	.
32gg\	32ddd\	.
32ee-\	32dddd\	.
32gg\JJJ	32ddd\JJJ	.
32a\LLL	32cccc#X\LLL	]
32gg\	32ccc\	.
32a\	32cccc#\	.
32gg\JJJ	32ccc\JJJ	.
!LO:LB:g=original	!LO:LB:g=original	!
=25	=25	=25
8dd\) 8ff#X	8ddd'\ 8dddd	.
(32cc\LLL	(32ggg\LLL	<
32ee-\	32gg\	.
32cc\	32ggg\	.
32ee-\JJJ	32gg\JJJ	.
32cc\LLL	32ggg\LLL	.
32ee-\	32gg\	.
32cc\	32ggg\	.
32ee-\JJJ	32gg\JJJ	.
32cc\LLL	32ggg\LLL	.
32ee-\	32gg\	.
32cc\	32ggg\	.
32ee-\JJJ	32gg\JJJ	.
32cc\LLL	32ggg\LLL	[ >
32ee-\	32gg\	.
32cc\	32ggg\	.
32ee-\JJJ	32gg\JJJ	.
32b-\LLL	32ggg\LLL	.
32dd\	32gg\	.
32b-\	32ggg\	.
32dd\JJJ	32gg\JJJ	.
32a\LLL	32ggg\LLL	.
32cc\	32gg\	.
32a\	32ggg\	.
32cc\JJJ	32gg\JJJ	.
32d\LLL	32fff#X\LLL	.
32cc\	32ff#X\	.
32d\	32fff#\)	.
32cc\JJJ)	32ff#\JJJ	]]
=26	=26	=26
32b-\LLL	32ggg\LLL	<
32dd\	32gg\	.
32b-\	32ggg\	.
32dd\JJJ	32gg\JJJ	.
32b-\LLL	32ggg\LLL	.
32dd\	32gg\	.
32cc\	32fff#X\	[ rf
32ee-\JJJ	32ff#X\JJJ	.
32b-\LLL	32ggg\LLL	<
32dd\	32gg\	.
32b-\	32ggg\	.
32dd\JJJ	32gg\JJJ	.
32b-\LLL	32ggg\LLL	.
32dd\	32gg\	.
32cc\	32fff#X\	[ rf
32ee-\JJJ	32ff#X\JJJ	>
32b-\LLL	32ggg\LLL	]
32dd\	32gg\	.
!	!	!LO:HP:t=cres.
32b-\	32ggg\	<
32dd\JJJ	32gg\JJJ	.
32b-\LLL	32ggg\LLL	.
32dd\	32gg\	.
32a\	32aaa\	.
32cc\JJJ	32aa\JJJ	.
32g\LLL	32bbb-\LLL	<
32b-\	32bb-\	.
32f\	32bbbn\	.
32a-X\JJJ	32bbn\JJJ	.
32en\LLL	32cccc\LLL	.
32g\	32ccc\	.
32e-X\	32cccc#X\	.
32g\JJJ	32ccc#X\JJJ	[[
!LO:LB:g=original	!LO:LB:g=original	!
=27	=27	=27
8d`/L	32dddd\LLL	f
.	32bbb-\	.
.	32ggg\	.
.	32ddd\JJJ	.
!	!LO:TX:b:t=risoluto	!
8d`/J 8g 8b- 8dd	32bb-/LLL	.
.	32gg/	.
.	32dd/	.
.	32b-/JJJ	.
*	*X8va	*
16r	32g/LLL	.
.	32d/	.
*clefF4	*	*
16D'\LL 16G 16B-	32dd/	.
.	32d/JJJ	.
16D'\ 16G 16B-	32dd/LLL	.
.	32d/	.
16D'\JJ 16G 16B-	32dd/	.
.	32d/JJJ	.
8DD`/ 8D	32dd/LLL	.
.	32d/	.
.	32f#X/	.
.	32a/JJJ	.
8D`\ 8F#X 8A 8d	32dd\LLL	.
.	32ff#X\	.
.	32aa\	.
.	32ddd\JJJ	.
*	*8va	*
16r	32fff#X\LLL	.
.	32aaa\	.
*clefG2	*	*
16d'/LL 16f#X 16a 16dd	32dddd\	.
.	32ddd\JJJ	.
16d'/ 16f# 16a 16dd	32dddd\LLL	.
.	32ddd\	.
16d'/JJ 16f# 16a 16dd	32dddd\	.
.	32ddd\JJJ	.
=28	=28	=28
*^	*	*
8d`/L 8g 8b- 8dd	2ryy	32dddd\LLL	.
.	.	32bbb-\	.
.	.	32ggg\	.
.	.	32ddd\JJJ	.
*clefF4	*	*	*
8D`/J 8G 8B- 8d	.	32bb-/LLL	.
.	.	32gg/	.
.	.	32dd/	.
.	.	32b-/JJJ	.
*	*	*X8va	*
16r	.	32g/LLL	.
.	.	32d/	.
16D'\LL 16G 16B-	.	32dd/	.
.	.	32d/JJJ	.
16D'\ 16G 16B-	.	32dd/LLL	.
.	.	32d/	.
16D'\JJ 16G 16B-	.	32dd/	.
.	.	32d/JJJ	.
4A/	4C\ 4E- 4G	32ee-/LLL	.
.	.	32e-/	.
.	.	32g/	.
.	.	32a/JJJ	.
.	.	32ee-/LLL	.
!	!	!LO:TX:b:t=ritenuto   un    poco.	!
.	.	32e-/	.
.	.	32g/	.
.	.	32a/JJJ	.
8A/L	8D\L 8G	32dd/LLL	.
.	.	32d/	.
.	.	32g/	.
.	.	32a/JJJ	.
8A/J	8D\J 8F#X	32dd/LLL	.
.	.	32d/	.
.	.	32f#X/	.
.	.	32a/JJJ	.
!LO:LB:g=original	!LO:LB:g=original	!LO:LB:g=original	!
=29	=29	=29	=29
!	!	!LO:TUP:b	!
16G/LL 16B-	16r	(48g/LLL	.
.	.	48d/	.
.	.	48g/	.
16A/ 16c	8D\L	48a/	.
.	.	48b-/	.
.	.	48a/JJJ)	.
!	!	!LO:TUP:b	!
16G/ 16B-	.	(48g/LLL	.
.	.	48d/	.
.	.	48g/	.
16A/JJ 16c	8D\	48a/	.
.	.	48b-/	.
.	.	48a/JJJ)	.
!	!	!LO:TUP:b	!
16G/LL 16B-	.	(48g/LLL	.
.	.	48d/	.
.	.	48g/	.
16A/ 16c	8D\	48a/	.
.	.	48b-/	.
.	.	48a/JJJ)	.
!	!	!LO:TUP:b	!
16G/ 16B-	.	(48g/LLL	.
.	.	48d/	.
.	.	48g/	.
16A/JJ 16c	16D\Jk	48a/	.
.	.	48b-/	.
.	.	48a/JJJ)	.
8B-/	8G\	8g/	.
8r	4.ryy	8r	.
16r	.	16r	.
16G'\LL 16A	.	16g'\LL 16a	f
!	!	!LO:TX:b:B:t=vivo.	!
16E-'\ 16G 16A	.	16g'\ 16a 16cc	.
16D'\JJ 16G 16A	.	16g'\JJ 16a 16dd	.
*v	*v	*	*
=30	=30	=30
8C'\ 8G 8A	8g'/ 8a 8ee-	.
8r	8r	.
!	!LO:TX:b:t=rall&colon;	!
16r	16r	.
*clefG2	*	*
16g'/LL 16a	16gg'\LL 16aa	pp
!	!LO:TX:b:t=legg&colon;	!
16e-'/ 16g 16a	16gg'\ 16aa 16ccc	.
16d'/JJ 16g 16a	16gg'\JJ 16aa 16ddd	.
8c'/ 8g 8a	8gg'\ 8aa 8eee-	.
8r	8r	.
16r	16r	.
*clefF4	*	*
!	!LO:TX:b:i:t=pesante.	!
!	!LO:TX:a:B:t=Lento	!
!	!LO:TX:a:B:t=Lento.	!
16GGG^^</LL 16GG	16d^^</LL 16g 16b-	ff
16AAA^^</ 16AA	16c#X^^</ 16en 16g 16a	.
16DD^^</JJ 16D	16cn^^</JJ 16d 16f#X 16a	.
=31	=31	=31
2GGG/ 2GG	2B-/ 2d 2g	.
4r;	4r;	.
8r	8r	.
8ryy	8ryy	.
==	==	==
*-	*-	*-
!!!RDF**kern: > = above
!!!RDF**kern: < = below
!!!system-decoration: [(s1,s2)]
!!!ENC: Filip Voros
!!!END: 2022-08-02
!!!ENC: Julita Ruszuk
!!!END: 2022-09-05
!!!YEC: Copyright 2022 Narodowy Instytut Fryderyka Chopina (https://polishscores.org)
!!!YEM: License CC-BY-4.0 (https://creativecommons.org/licenses/by/4.0)
